svg/justvector/paypal.svg

<svg xmlns="http://www.w3.org/2000/svg" viewBox="0 0 100 100" enable-background="new 0 0 100 100"><path d="m63.06 5h-39.41l-17.46 80.15h23.12l5.664-26.557h16.52c15.803 0 29.02-9.744 32.563-26.312 4-18.756-9.448-27.28-21-27.28m-17.241 38.24h-7.536l4.953-21.924h11.326c3.885 0 6.827 2.314 7.794 5.712-.496-.086-.956-.235-1.498-.235h-11.325l-3.714 16.447m16.531-10.964c-1.378 5.95-7.03 10.698-12.79 10.921l2.711-12.02h10.266c-.061.367-.086.721-.187 1.102m28.01 5.476c1.326-6.211.711-11.275-1.086-15.306 3.748 4.47 5.688 10.955 3.825 19.687-3.543 16.566-16.762 26.31-32.562 26.31h-16.52l-5.663 26.555h-23.13l.96-4.381h19.428l5.663-26.555h16.521c15.802 0 29.02-9.743 32.56-26.31"/></svg>

<?xml version="1.0" encoding="iso-8859-1"?>
<!-- Generator: Adobe Illustrator 15.0.0, SVG Export Plug-In . SVG Version: 6.00 Build 0)  -->
<!DOCTYPE svg PUBLIC "-//W3C//DTD SVG 1.1//EN" "http://www.w3.org/Graphics/SVG/1.1/DTD/svg11.dtd">
<svg version="1.1" id="Icons" xmlns="http://www.w3.org/2000/svg" xmlns:xlink="http://www.w3.org/1999/xlink" x="0px" y="0px"
	 width="100px" height="100px" viewBox="0 0 100 100" style="enable-background:new 0 0 100 100;" xml:space="preserve">
<path id="PayPal" d="M63.056,5H23.648L6.188,85.146h23.124l5.664-26.557h16.52c15.803,0,29.019-9.744,32.563-26.312
	C88.063,13.521,74.611,5,63.056,5z M45.815,43.242h-7.536l4.953-21.924h11.326c3.885,0,6.827,2.314,7.794,5.712
	c-0.496-0.086-0.956-0.235-1.498-0.235H49.529L45.815,43.242z M62.346,32.278c-1.378,5.95-7.033,10.698-12.79,10.921l2.711-12.023
	h10.266C62.472,31.543,62.447,31.897,62.346,32.278z M90.354,37.754c1.326-6.211,0.711-11.275-1.086-15.306
	c3.748,4.47,5.688,10.955,3.825,19.687C89.55,58.701,76.331,68.445,60.531,68.445h-16.52L38.348,95H15.222l0.96-4.381h19.428
	l5.663-26.555h16.521C73.596,64.064,86.812,54.321,90.354,37.754z"/>
</svg>
